X:76
T:The Leitrim Fancy
N:Hornpipe   Allan's  #76  pg19
N:Trad/Anon
N:CONVERTED FROM NOTEWORTHY COMPOSER  (WWW.NOTEWORTHYSOFTWARE.COM) BY
N:ABC2NWC (HTTP://MEMBERS.AOL.COM/ABACUSMUSIC/), WITH
Z: (INTO NWC) VINCE BRENNAN 2002   (WWW.SOSYOURMOM.COM)
I:abc2nwc
M:4/4
L:1/8
K:D
(A3/2G/2)| ((3FGF)E3/2F/2D3/2E/2F3/2G/2| ((3ABA) G3/2B/2 A2d3/2e/2|f3/2d/2g3/2e/2 a3/2g/2e3/2d/2|c3/2A/2G3/2F/2 G2(A3/2G/2|
 ((3FGF)  ((3EFE) D3/2E/2F3/2G/2| ((3ABA) G3/2B/2 A2d3/2e/2|f3/2d/2g3/2e/2 a3/2g/2e3/2d/2|d2{e}d3/2 c/2 d2:|
|:d3/2g/2|{fg}f3/2 e/2f3/2g/2 a3/2g/2e3/2g/2|f3/2d/2d3/2f/2 a2 ((3efg)| ((3agf)  ((3gfe) f3/2d/2e3/2c/2|
[1d3/2c/2A3/2F/2 G2G3/2g/2|{fg}f3/2 e/2f3/2g/2 a3/2g/2e3/2g/2|f3/2d/2d3/2f/2 a2 ((3efg)|a3/2g/2e3/2d/2 c3/2d/2e3/2c/2|d2({e}d3/2 c/2 d2:|
[2d3/2c/2A3/2F/2 G2A3/2G/2| ((3FGF)  ((3EFE) D3/2E/2F3/2G/2| ((3ABA) G3/2B/2 A2d3/2e/2|f3/2d/2f3/2e/2 a3/2g/2e3/2c/2|d2({e}d3/2 c/2 d2|]
